docs/img/icon-star.svg

<svg width="36" height="34" viewBox="0 0 36 34" fill="none" xmlns="http://www.w3.org/2000/svg">
<path d="M17.3052 1.70847C17.7716 0.933483 18.8951 0.933482 19.3615 1.70847L24.1058 9.59184C24.2733 9.87025 24.5466 10.0688 24.8632 10.1421L33.8268 12.2181C34.708 12.4222 35.0552 13.4908 34.4622 14.1738L28.4308 21.122C28.2178 21.3674 28.1134 21.6887 28.1415 22.0124L28.937 31.1788C29.0152 32.0799 28.1062 32.7403 27.2734 32.3875L18.8014 28.7983C18.5022 28.6716 18.1644 28.6716 17.8652 28.7983L9.39329 32.3875C8.56045 32.7403 7.65147 32.0799 7.72967 31.1788L8.5252 22.0124C8.55329 21.6887 8.4489 21.3674 8.23589 21.122L2.20442 14.1738C1.61149 13.4908 1.95869 12.4222 2.83987 12.2181L11.8035 10.1421C12.12 10.0688 12.3933 9.87025 12.5609 9.59184L17.3052 1.70847Z" stroke="white" stroke-width="2"/>
</svg>

<svg xmlns="http://www.w3.org/2000/svg" width="36" height="34" fill="none"><path stroke="#fff" stroke-width="2" d="M17.305 1.708a1.2 1.2 0 0 1 2.057 0l4.744 7.884a1.2 1.2 0 0 0 .757.55l8.964 2.076a1.2 1.2 0 0 1 .635 1.956l-6.031 6.948a1.2 1.2 0 0 0-.29.89l.796 9.167a1.2 1.2 0 0 1-1.664 1.209l-8.472-3.59a1.2 1.2 0 0 0-.936 0l-8.472 3.59a1.2 1.2 0 0 1-1.663-1.21l.795-9.166a1.2 1.2 0 0 0-.29-.89l-6.03-6.948a1.2 1.2 0 0 1 .635-1.956l8.964-2.076a1.2 1.2 0 0 0 .757-.55z"/></svg>
